; generated by Slic3r 1.2.0 on 2014-09-30 at 05:21:41

; external perimeters extrusion width = 0.50mm
; perimeters extrusion width = 0.72mm
; infill extrusion width = 0.72mm
; solid infill extrusion width = 0.72mm
; top infill extrusion width = 0.72mm

G21 ; set units to millimeters
M107
M104 S200 ; set temperature
G28 ; home all axes
G1 Z5 F5000 ; lift nozzle

M109 S200 ; wait for temperature to be reached
G90 ; use absolute coordinates
G92 E0
M82 ; use absolute distances for extrusion
G1 F1800.000 E-1.00000
G92 E0
G1 Z0.350 F7800.000
G1 X104.045 Y93.990 F7800.000
G1 E1.00000 F1800.000
G1 X105.798 Y92.511 E1.07096 F600.000
G1 X108.370 Y91.655 E1.15482
G1 X109.051 Y91.581 E1.17602
G1 X109.647 Y91.555 E1.19448
G1 X115.585 Y91.579 E1.37822
G1 X116.247 Y91.636 E1.39878 F600.000
G1 X118.464 Y92.225 E1.46974
G1 X120.347 Y93.534 E1.54071
G1 X121.671 Y95.407 E1.61167
G1 X122.305 Y98.237 E1.70140
G1 X122.305 Y101.763 E1.81052
G1 X121.908 Y104.022 E1.88148
G1 X120.765 Y106.010 E1.95244
G1 X119.012 Y107.489 E2.02340
G1 X116.247 Y108.364 E2.11313
G1 X115.018 Y108.445 E2.15124
G1 X108.923 Y108.405 E2.33984
G1 X108.406 Y108.349 E2.35594
G1 X106.204 Y107.707 E2.42690
G1 X104.353 Y106.353 E2.49786
G1 X103.074 Y104.450 E2.56883
G1 X102.505 Y101.763 E2.65378
G1 X102.505 Y98.237 E2.76291
G1 X102.902 Y95.978 E2.83387
G1 X104.008 Y94.055 E2.90251
G1 F1800.000 E1.90251
G92 E0
G1 X110.105 Y99.155 F7800.000
G1 E1.00000 F1800.000
G1 X114.706 Y99.155 E1.14236 F600.000
G1 X114.706 Y100.845 E1.19467
G1 X110.105 Y100.845 E1.33702
G1 X110.105 Y99.230 E1.38702
G1 X109.480 Y98.530 F7800.000
G1 X115.003 Y98.530 E1.55792 F600.000
G1 X115.331 Y98.558 E1.56808
G1 X115.331 Y101.441 E1.65730
G1 X115.001 Y101.470 E1.66752
G1 X109.480 Y101.470 E1.83837
G1 X109.480 Y98.605 E1.92703
G1 X109.913 Y98.780 F7800.000
G1 X110.417 Y100.000 F7800.000
G1 X114.393 Y100.000 E2.11895 F600.000
M106 S255
G1 F1800.000 E1.11895
G92 E0
G1 Z0.650 F7800.000
G1 X115.461 Y100.430 F7800.000
G1 E1.00000 F1800.000
G1 X114.948 Y100.476 E1.01429 F600.000
G1 X109.619 Y100.476 E1.16233
G1 X109.619 Y99.524 E1.18879
G1 X114.956 Y99.524 E1.33705
G1 X115.461 Y99.567 E1.35111
G1 X115.461 Y100.355 E1.37300
G1 X108.964 Y101.051 F7800.000
G1 X108.964 Y98.945 E1.43150 F600.000
G1 X109.678 Y98.869 E1.45144
G1 X114.984 Y98.869 E1.59883
G1 X115.931 Y98.950 E1.62521
M106 S255
G1 X116.115 Y98.966 E1.63036 F3600.000
G1 X116.115 Y101.032 E1.68774
G1 X115.931 Y101.048 E1.69288
M106 S255
G1 X114.980 Y101.131 E1.71939 F600.000
G1 X109.691 Y101.131 E1.86631
G1 X109.039 Y101.059 E1.88453
G1 X108.419 Y101.539 F7800.000
M106 S255
G1 X108.419 Y98.459 E1.97008 F3600.000
G1 X108.880 Y98.406 E1.98296
M106 S255
G1 X115.931 Y101.595 F7800.000
G1 X115.006 Y101.676 E2.00012 F600.000
G1 X109.661 Y101.676 E2.09894
G1 X108.880 Y101.590 E2.11347
G1 X108.880 Y98.406 F7800.000
G1 X109.657 Y98.324 E2.12792 F600.000
G1 X115.008 Y98.324 E2.22684
G1 X115.931 Y98.403 E2.24397
M106 S255
G1 X116.660 Y98.466 E2.26431 F3600.000
G1 X116.660 Y101.533 E2.34951
G1 X115.931 Y101.595 E2.36985
M106 S255
G1 X108.880 Y101.590 F7800.000
M106 S255
G1 X108.494 Y101.548 E2.38064 F3600.000
M106 S255
G1 F1800.000 E1.38064
G92 E0
G1 Z0.950 F7800.000
G1 X108.732 Y100.464 F7800.000
G1 E1.00000 F1800.000
G1 X108.732 Y99.528 E1.02600 F600.000
G1 X109.704 Y99.426 E1.05315
G1 X114.956 Y99.426 E1.19904
G1 X116.402 Y99.550 E1.23935
G1 X116.402 Y100.446 E1.26424
G1 X114.948 Y100.574 E1.30479
G1 X109.727 Y100.574 E1.44983
G1 X108.807 Y100.473 E1.47554
G1 X108.078 Y101.051 F7800.000
G1 X108.078 Y98.945 E1.53403 F600.000
G1 X109.678 Y98.772 E1.57875
G1 X114.984 Y98.772 E1.72614
G1 X117.057 Y98.950 E1.78392
G1 X117.057 Y101.048 E1.84221
G1 X114.980 Y101.228 E1.90012
G1 X109.691 Y101.228 E2.04704
G1 X108.152 Y101.059 E2.09003
G1 X107.533 Y101.539 F7800.000
M106 S255
G1 X107.533 Y98.459 E2.17559 F3600.000
G1 X107.919 Y98.415 E2.18640
M106 S255
G1 X117.160 Y101.587 F7800.000
G1 X115.006 Y101.773 E2.22637 F600.000
G1 X109.661 Y101.773 E2.32520
G1 X107.919 Y101.582 E2.35759
G1 X107.919 Y98.415 F7800.000
G1 X109.657 Y98.227 E2.38991 F600.000
G1 X115.008 Y98.227 E2.48883
G1 X117.160 Y98.412 E2.52877
M106 S255
G1 X117.602 Y98.449 E2.54108 F3600.000
G1 X117.602 Y101.550 E2.62720
G1 X117.160 Y101.587 E2.63951
M106 S255
G1 X107.919 Y101.582 F7800.000
M106 S255
G1 X107.607 Y101.548 E2.64823 F3600.000
M106 S255
G1 X109.059 Y99.996 F7800.000
G1 X115.865 Y99.998 E2.73346 F600.000
G1 F1800.000 E1.73346
G92 E0
G1 Z1.250 F7800.000
G1 X116.628 Y100.523 F7800.000
G1 E1.00000 F1800.000
G1 X114.948 Y100.671 E1.04684 F600.000
G1 X109.727 Y100.671 E1.19188
G1 X107.845 Y100.464 E1.24445
G1 X107.845 Y99.528 E1.27045
G1 X109.704 Y99.329 E1.32238
G1 X114.956 Y99.329 E1.46827
G1 X116.628 Y99.472 E1.51487
G1 X116.628 Y100.448 E1.54196
G1 X117.282 Y101.125 F7800.000
G1 X114.980 Y101.326 E1.60616 F600.000
G1 X109.691 Y101.326 E1.75308
G1 X107.191 Y101.051 E1.82294
G1 X107.191 Y98.945 E1.88143
G1 X109.235 Y98.709 E1.93859
G1 X109.678 Y98.674 E1.95094
G1 X114.984 Y98.674 E2.09833
G1 X117.282 Y98.872 E2.16239
G1 X117.282 Y101.050 E2.22289
G1 X117.593 Y101.645 F7800.000
G1 X115.006 Y101.871 E2.27090 F600.000
G1 X109.661 Y101.871 E2.36972
G1 X107.033 Y101.582 E2.41861
M106 S255
G1 X106.646 Y101.539 E2.42942 F3600.000
G1 X106.646 Y98.459 E2.51497
G1 X107.033 Y98.415 E2.52579
M106 S255
G1 X109.182 Y98.166 E2.56579 F600.000
G1 X109.657 Y98.129 E2.57460
G1 X115.008 Y98.129 E2.67352
G1 X117.827 Y98.375 E2.72585
G1 X117.827 Y101.576 E2.78504
G1 X117.665 Y101.624 E2.78816
G1 X107.532 Y98.424 F7800.000
G1 X108.173 Y99.996 F7800.000
G1 X116.300 Y99.997 E2.88995 F600.000
G1 F1800.000 E1.88995
G92 E0
G1 Z1.550 F7800.000
G1 X116.853 Y100.599 F7800.000
G1 E1.00000 F1800.000
G1 X114.948 Y100.769 E1.05313 F600.000
G1 X109.727 Y100.769 E1.19817
G1 X107.058 Y100.475 E1.27276
G1 X107.058 Y99.517 E1.29938
G1 X109.165 Y99.274 E1.35830
G1 X109.704 Y99.231 E1.37332
G1 X114.956 Y99.231 E1.51922
G1 X116.853 Y99.394 E1.57211
G1 X116.853 Y100.524 E1.60348
G1 X117.508 Y101.201 F7800.000
G1 X114.980 Y101.423 E1.67397 F600.000
G1 X109.691 Y101.423 E1.82089
G1 X106.403 Y101.062 E1.91277
G1 X106.403 Y98.934 E1.97188
G1 X109.102 Y98.622 E2.04733
G1 X109.678 Y98.577 E2.06341
G1 X114.984 Y98.577 E2.21080
G1 X117.508 Y98.798 E2.28116
G1 X117.508 Y101.126 E2.34582
G1 X118.053 Y101.576 F7800.000
G1 X117.628 Y101.702 E2.35401 F600.000
G1 X117.596 Y101.740 E2.35494
G1 X115.006 Y101.968 E2.40300
G1 X109.661 Y101.968 E2.50183
G1 X106.146 Y101.582 E2.56721
M106 S255
G1 X105.858 Y101.550 E2.57525 F3600.000
G1 X105.858 Y98.448 E2.66142
G1 X106.146 Y98.415 E2.66947
M106 S255
G1 X109.049 Y98.079 E2.72350 F600.000
G1 X109.657 Y98.032 E2.73478
G1 X115.008 Y98.032 E2.83370
G1 X117.665 Y98.265 E2.88302
G1 X118.053 Y98.410 E2.89068
G1 X118.053 Y101.501 E2.94783
G1 X106.644 Y98.376 F7800.000
G1 X108.578 Y99.992 F7800.000
G1 X116.189 Y99.996 E3.27533 F600.000
G1 F1800.000 E2.27533
G92 E0
G1 Z1.850 F7800.000
G1 X117.079 Y99.320 F7800.000
G1 E1.00000 F1800.000
G1 X117.079 Y100.675 E1.03764 F600.000
G1 X114.948 Y100.866 E1.09706
G1 X109.727 Y100.866 E1.24211
G1 X106.877 Y100.553 E1.32174
G1 X106.877 Y99.435 E1.35278
G1 X109.031 Y99.187 E1.41301
G1 X109.704 Y99.134 E1.43176
G1 X114.956 Y99.134 E1.57765
G1 X117.004 Y99.313 E1.63475
G1 X117.733 Y98.788 F7800.000
G1 X117.733 Y101.169 E1.70088 F600.000
G1 X117.221 Y101.320 E1.71572
G1 X114.980 Y101.521 E1.77822
G1 X109.691 Y101.521 E1.92514
G1 X106.223 Y101.139 E2.02205
G1 X106.223 Y98.852 E2.08559
G1 X108.968 Y98.535 E2.16236
G1 X109.678 Y98.479 E2.18215
G1 X114.984 Y98.479 E2.32954
G1 X117.504 Y98.703 E2.39981
G1 X117.663 Y98.762 E2.40451
G1 X118.278 Y98.410 F7800.000
G1 X118.278 Y101.576 E2.46305 F600.000
G1 X117.613 Y101.772 E2.47587
G1 X117.559 Y101.839 E2.47746
G1 X115.006 Y102.066 E2.52483
G1 X109.661 Y102.066 E2.62366
G1 X106.013 Y101.672 E2.69149
G1 X105.678 Y101.575 E2.69795
G1 X105.678 Y98.428 E2.75614
G1 X106.017 Y98.327 E2.76269
G1 X108.916 Y97.992 E2.81663
G1 X109.657 Y97.934 E2.83038
G1 X115.008 Y97.934 E2.92931
G1 X117.627 Y98.167 E2.97793
G1 X118.208 Y98.384 E2.98939
G1 X117.978 Y98.810 F7800.000
G1 X116.751 Y99.995 F7800.000
G1 X107.691 Y99.992 E3.37927 F600.000
G1 F1800.000 E2.37927
G92 E0
G1 Z2.150 F7800.000
G1 X106.697 Y99.354 F7800.000
G1 E1.00000 F1800.000
G1 X108.898 Y99.100 E1.06155 F600.000
G1 X109.704 Y99.036 E1.08401
G1 X114.956 Y99.036 E1.22991
G1 X117.304 Y99.246 E1.29539
G1 X117.304 Y100.679 E1.33520
G1 X116.964 Y100.780 E1.34504
G1 X114.948 Y100.964 E1.40128
G1 X109.727 Y100.964 E1.54632
G1 X106.697 Y100.638 E1.63097
G1 X106.697 Y99.429 E1.66457
G1 X106.042 Y98.839 F7800.000
G1 X106.420 Y98.727 E1.67550 F600.000
G1 X108.835 Y98.448 E1.74303
G1 X109.678 Y98.382 E1.76654
G1 X114.984 Y98.382 E1.91393
G1 X117.467 Y98.604 E1.98317
G1 X117.959 Y98.788 E1.99775
G1 X117.959 Y101.169 E2.06388
G1 X117.286 Y101.367 E2.08337
G1 X117.248 Y101.413 E2.08501
G1 X114.980 Y101.618 E2.14827
G1 X109.691 Y101.618 E2.29519
G1 X106.407 Y101.270 E2.38692
G1 X106.042 Y101.165 E2.39746
G1 X106.042 Y98.914 E2.45999
G1 X105.497 Y98.426 F7800.000
G1 X106.310 Y98.191 E2.47564 F600.000
G1 X108.782 Y97.905 E2.52165
G1 X109.657 Y97.837 E2.53787
G1 X115.008 Y97.837 E2.63680
G1 X117.590 Y98.069 E2.68473
G1 X118.504 Y98.410 E2.70276
G1 X118.504 Y101.576 E2.76130
G1 X117.599 Y101.843 E2.77874
G1 X117.521 Y101.937 E2.78099
G1 X115.006 Y102.163 E2.82768
G1 X109.661 Y102.163 E2.92651
G1 X106.306 Y101.808 E2.98888
G1 X105.497 Y101.575 E3.00444
G1 X105.497 Y98.501 E3.06128
G1 X105.969 Y98.591 F7800.000
G1 X107.194 Y100.235 F7800.000
G1 X107.151 Y100.192 E3.06295 F600.000
G1 X107.593 Y99.708 E3.08116
G1 X108.232 Y100.346 E3.10624
G1 X109.270 Y100.457 E3.13524
G1 X108.424 Y99.612 E3.16845
G1 X109.265 Y99.527 E3.19195
G1 X110.248 Y100.509 E3.23054
G1 X111.175 Y100.509 E3.25628
G1 X110.156 Y99.491 E3.29628
G1 X111.083 Y99.491 E3.32202
G1 X112.101 Y100.509 E3.36202
G1 X113.028 Y100.509 E3.38776
G1 X112.009 Y99.491 E3.42776
G1 X112.936 Y99.491 E3.45350
G1 X113.954 Y100.509 E3.49350
G1 X114.881 Y100.509 E3.51924
G1 X113.863 Y99.491 E3.55924
G1 X114.789 Y99.491 E3.58498
G1 X115.734 Y100.436 E3.62209
G1 X115.789 Y99.564 E3.64635
G1 X116.583 Y100.358 E3.67754
G1 X116.850 Y99.698 E3.69731
G1 X116.807 Y99.656 E3.69897
G1 F1800.000 E2.69897
G92 E0
G1 Z2.450 F7800.000
G1 X117.530 Y99.242 F7800.000
G1 E1.00000 F1800.000
G1 X117.530 Y100.679 E1.03992 F600.000
G1 X116.829 Y100.886 E1.06023
G1 X114.948 Y101.061 E1.11269
G1 X109.727 Y101.061 E1.25773
G1 X107.671 Y100.835 E1.31518
G1 X106.820 Y100.760 E1.33890
G1 X106.516 Y100.672 E1.34769
G1 X106.516 Y99.331 E1.38493
G1 X106.844 Y99.234 E1.39442
G1 X108.765 Y99.013 E1.44813
G1 X109.704 Y98.939 E1.47430
G1 X114.956 Y98.939 E1.62020
G1 X117.282 Y99.150 E1.68506
G1 X117.459 Y99.216 E1.69033
G1 X118.184 Y98.788 F7800.000
G1 X118.184 Y101.169 E1.75646 F600.000
G1 X117.271 Y101.438 E1.78290
G1 X117.211 Y101.511 E1.78553
G1 X114.980 Y101.716 E1.84776
G1 X109.691 Y101.716 E1.99468
G1 X107.606 Y101.486 E2.05293
G1 X106.700 Y101.406 E2.07821
G1 X105.862 Y101.165 E2.10243
G1 X105.862 Y98.839 E2.16703
G1 X106.713 Y98.591 E2.19166
G1 X108.701 Y98.361 E2.24727
G1 X109.678 Y98.284 E2.27449
G1 X114.984 Y98.284 E2.42188
G1 X117.430 Y98.506 E2.49008
G1 X118.114 Y98.762 E2.51037
G1 X118.729 Y98.410 F7800.000
G1 X118.729 Y101.576 E2.56891 F600.000
G1 X117.585 Y101.914 E2.59098
G1 X117.484 Y102.035 E2.59389
G1 X115.006 Y102.261 E2.63989
G1 X109.661 Y102.261 E2.73871
G1 X107.552 Y102.029 E2.77793
G1 X106.599 Y101.944 E2.79562
G1 X105.317 Y101.575 E2.82030
G1 X105.317 Y98.426 E2.87852
G1 X106.603 Y98.055 E2.90328
G1 X108.649 Y97.818 E2.94135
G1 X109.657 Y97.739 E2.96004
G1 X115.008 Y97.739 E3.05897
G1 X117.553 Y97.970 E3.10622
G1 X118.659 Y98.384 E3.12805
G1 X118.430 Y98.810 F7800.000
G1 X117.075 Y100.305 F7800.000
G1 X117.026 Y100.354 E3.13000 F600.000
G1 X116.843 Y99.565 E3.15251
G1 X115.891 Y100.517 E3.18992
G1 X115.955 Y99.481 E3.21875
G1 X114.829 Y100.607 E3.26298
G1 X113.857 Y100.607 E3.28998
G1 X115.059 Y99.404 E3.33723
G1 X114.098 Y99.393 E3.36395
G1 X112.885 Y100.607 E3.41161
G1 X111.912 Y100.607 E3.43861
G1 X113.126 Y99.393 E3.48627
G1 X112.153 Y99.393 E3.51328
G1 X110.940 Y100.607 E3.56094
G1 X109.968 Y100.607 E3.58794
G1 X111.181 Y99.393 E3.63560
G1 X110.209 Y99.393 E3.66261
G1 X109.071 Y100.532 E3.70733
G1 X108.195 Y100.435 E3.73180
G1 X109.196 Y99.435 E3.77112
G1 X108.113 Y99.545 E3.80136
G1 X107.311 Y100.347 E3.83284
G1 X106.971 Y99.715 E3.85277
G1 X107.013 Y99.672 E3.85445
G1 F1800.000 E2.85445
G92 E0
G1 Z2.750 F7800.000
G1 X106.336 Y99.335 F7800.000
G1 E1.00000 F1800.000
G1 X107.137 Y99.098 E1.02321 F600.000
G1 X108.631 Y98.926 E1.06499
G1 X109.704 Y98.841 E1.09488
G1 X114.956 Y98.841 E1.24078
G1 X117.245 Y99.051 E1.30461
G1 X117.755 Y99.242 E1.31975
G1 X117.755 Y100.679 E1.35967
G1 X116.880 Y100.937 E1.38502
G1 X116.845 Y100.980 E1.38655
G1 X114.948 Y101.159 E1.43947
G1 X109.727 Y101.159 E1.58451
G1 X108.274 Y100.999 E1.62510
G1 X107.113 Y100.896 E1.65748
G1 X106.336 Y100.672 E1.67995
G1 X106.336 Y99.410 E1.71500
G1 X105.681 Y98.839 F7800.000
G1 X107.006 Y98.455 E1.75331 F600.000
G1 X108.568 Y98.274 E1.79700
G1 X109.678 Y98.187 E1.82794
G1 X114.984 Y98.187 E1.97533
G1 X117.393 Y98.408 E2.04250
G1 X118.410 Y98.788 E2.07267
G1 X118.410 Y101.169 E2.13880
G1 X117.257 Y101.509 E2.17219
G1 X117.173 Y101.609 E2.17581
G1 X114.980 Y101.813 E2.23701
G1 X109.691 Y101.813 E2.38392
G1 X108.209 Y101.650 E2.42532
G1 X106.992 Y101.542 E2.45926
G1 X105.681 Y101.165 E2.49716
G1 X105.681 Y98.914 E2.55967
G1 X105.136 Y98.426 F7800.000
G1 X106.896 Y97.918 E2.59354 F600.000
G1 X108.515 Y97.731 E2.62367
G1 X109.657 Y97.642 E2.64484
G1 X115.008 Y97.642 E2.74377
G1 X117.516 Y97.872 E2.79033
G1 X118.955 Y98.410 E2.81874
G1 X118.955 Y101.576 E2.87728
G1 X117.570 Y101.985 E2.90397
G1 X117.447 Y102.133 E2.90754
G1 X115.006 Y102.358 E2.95285
G1 X109.661 Y102.358 E3.05168
G1 X108.155 Y102.193 E3.07968
G1 X106.892 Y102.081 E3.10313
G1 X105.136 Y101.575 E3.13691
G1 X105.136 Y98.501 E3.19374
G1 X105.608 Y98.591 F7800.000
G1 X106.839 Y100.344 F7800.000
G1 X106.790 Y100.295 E3.19567 F600.000
G1 X107.033 Y99.603 E3.21604
G1 X107.943 Y100.513 E3.25180
G1 X108.984 Y100.620 E3.28087
G1 X107.839 Y99.475 E3.32585
G1 X108.677 Y99.378 E3.34928
G1 X110.003 Y100.704 E3.40137
G1 X110.937 Y100.704 E3.42733
G1 X109.543 Y99.310 E3.48210
G1 X110.464 Y99.296 E3.50767
G1 X111.872 Y100.704 E3.56299
G1 X112.806 Y100.704 E3.58895
G1 X111.398 Y99.296 E3.64426
G1 X112.333 Y99.296 E3.67022
G1 X113.741 Y100.704 E3.72554
G1 X114.675 Y100.704 E3.75150
G1 X113.267 Y99.296 E3.80682
G1 X114.202 Y99.296 E3.83278
G1 X115.551 Y100.645 E3.88578
G1 X116.405 Y100.565 E3.90961
G1 X115.155 Y99.315 E3.95872
G1 X116.182 Y99.407 E3.98738
G1 X117.157 Y100.382 E4.02566
G1 X117.301 Y99.592 E4.04798
G1 X117.247 Y99.537 E4.05011
G1 F1800.000 E3.05011
G92 E0
G1 Z3.050 F7800.000
G1 X117.981 Y99.242 F7800.000
G1 E1.00000 F1800.000
G1 X117.981 Y100.679 E1.03992 F600.000
G1 X116.866 Y101.008 E1.07221
G1 X116.808 Y101.078 E1.07474
G1 X114.948 Y101.256 E1.12663
G1 X109.727 Y101.256 E1.27167
G1 X107.406 Y101.032 E1.33643
G1 X106.155 Y100.672 E1.37258
G1 X106.155 Y99.335 E1.40971
G1 X107.430 Y98.962 E1.44661
G1 X108.498 Y98.839 E1.47647
G1 X109.704 Y98.744 E1.51007
G1 X114.956 Y98.744 E1.65597
G1 X117.207 Y98.953 E1.71877
G1 X117.910 Y99.216 E1.73962
G1 X118.635 Y98.788 F7800.000
G1 X118.635 Y101.169 E1.80575 F600.000
G1 X117.242 Y101.580 E1.84610
G1 X117.136 Y101.707 E1.85071
G1 X114.980 Y101.911 E1.91087
G1 X109.691 Y101.911 E2.05779
G1 X107.285 Y101.678 E2.12491
G1 X105.501 Y101.165 E2.17650
G1 X105.501 Y98.839 E2.24110
G1 X107.299 Y98.318 E2.29309
G1 X108.435 Y98.187 E2.32486
G1 X109.678 Y98.089 E2.35951
G1 X114.984 Y98.089 E2.50690
G1 X117.355 Y98.310 E2.57304
G1 X118.565 Y98.762 E2.60892
G1 X119.180 Y98.410 F7800.000
G1 X119.180 Y101.576 E2.66746 F600.000
G1 X117.556 Y102.055 E2.69877
G1 X117.410 Y102.231 E2.70300
G1 X115.006 Y102.456 E2.74763
G1 X109.661 Y102.456 E2.84645
G1 X107.185 Y102.217 E2.89244
G1 X104.956 Y101.575 E2.93533
